X:170
T:Ca' Hawkie Through the Water
Z:Jack Campin, http://www.campin.me.uk/
F:Jack Campin's Nine-Note Tunebook
% last edit 03-02-2013
S:Northumbrian Minstrelsy
M:2/4
L:1/8
Q:1/4=100
K:DMin
P:Verse
cA AF|GA B2| cA   A`F| G`````E     EC |
cA AF|GA BB|(A`d) d^c| d`````D     DD||
P:Chorus
F2 FA|G2 GB| F2   F`A|(G/F/)(E/D/) CE |
FF FA|G2 GB| Ad   d^c| d`````D     DD|]

